X:1159
T:Prince of Wales's (or 13th. Regt.) Do.
M:C
L:1/8
Q:1/2=66
I: :: :|
Z:Jack Campin * www.campin.me.uk * 2009
K:D
A>A|d2 e>c   d2 e>c|d2 e2 f2 g2|f2 g>e       f2 g>e|f2 g2  a2
A2 |B3  c/d/ ed`cB |A2 a2 g2 f2|e3     f     g2 f2 |e2 e>e e2:|
e>e|a2 e>e   a2 e>e|a3  e dc`BA|d3     A     GF`ED |A2 A>A A2
z2 |a3  b/c/ g2 f2 |g2 a2 b2 z2|g3     a/g/  f2 e2 |f2 g2  a2
A>A|d2 e>c   d2 e>c|d2 e2 f2 g2|f2(a/g/f/e/) d2Tc2 |d2 dd  d2:|

